X:97
M:2/4
L:1/8
K:A
cA BA | FA E2 | FA Bc/B/ | A2 [1]A :|[2] A2 | 
|: AB cA | B/c/d ec | dB c/B/A | B/4c/4B/4A F2 | 

